X:1
T:Entreat Me Not to Leave Thee
T:Robert Lowry
T:Entreat Me Not to Leave Thee
T:Public Domain
T:Public Domain
T:Public Domain
C:Robert Lowry
Z:Public Domain
%%score ( 1 2 ) ( 3 4 )
L:1/8
M:6/8
K:Bb
V:1 treble 
V:2 treble 
V:3 bass 
V:4 bass 
V:1
 [DF] | [DB]2 [FA] [EG]2 [DF] | [EG]3 [DF]2 [DF] | [EG]2 [EG] [EA]2 [DB] | [CF]3- [CF]2 F | %5
w: 1.~En-|treat me not to|leave thee, My|heart goes with thee|now; * Why|
w: 2.~I’ll|fol- low where thou|lead- est; My|love will cling to|thee; * And|
w: 3.~Where|death’s cold hand shall|find thee, There|let my eye- lids|close, * And,|
 [Fc]2 [F=B] [Fc]2 [Fd] | [Ec]3 [DB]2 [FB] | [GB]2 [^FA] [GB]2 [EG] | [DF]3- [DF]2 [DF] | %9
w: my foot- steps home-|ward? No friend|so dear as thou!|Thy * heart|
w: thy head is pil-|lowed, My night-|ly rest shall be;|Thy * birth-|
w: the grave be- side|thee, This mor-|tal frame re- pose:|Oh, * do|
 (FE)[DB] [Fc]2 [Fd] | [DB]3 [DF]2 [FB] | [EG]2 [EA] [FB]2 [Gc] | ([F-B]3 [FA]2) F | %13
w: has * borne my sor-|And I have|wept for thine; And|now * how|
w: place * and thy kin-|I’ll cher- ish|like my own; Thy|God * shall|
w: not * now en- treat|No friend so|dear as thou; My|heart * would|
 [Fd]2 [Ec] [Ge]2 [Fd] | ([Ec]2 [GB]) [FA]2 [EG] | F2 F [FA]2 [=EG] | F3- F2 ||"^Refrain" [EF] | %18
w: I leave thee? Oh,|let * thy lot|be mine. * *|||
w: my ref- uge, I’ll|wor- * ship at|His throne. En- treat|to *|thee,|
w: in an- guish If|I * should leave|thee now. * *|||
 [DB]2 [FA] [EG]2 [DF] | [EG]3 [DF]2 [DF] | [DB]2 [FA] [EG]2 [DF] | [EG]3 [DF]3 | %22
w: ||||
w: En- treat me not|to leave thee,|Or to re- turn|from fol-|
w: ||||
 [EA]3 [DB]2 [DB] | [Fc]3- [Fc]2 [Fd] | [=Ec]>[Ec][Ec] [GB]2 [GB] | [FA]3- [FA]2 F | %26
w: ||||
w: low- ing af-|ter * thee;|For where thou go- est|I * will|
w: ||||
 [Fd]2 [Ec] [DB]2 [FA] | [EG]2 [EG] [DF]2 [CF] | [Ec]2 [DB] [EA]2 [EG] | [DF]2 [B,D] [DF]3 | %30
w: ||||
w: And where thou lodg-|est I will lodge;|Thy peo- ple shall|be my peo-|
w: ||||
 [EG]3 [GB][FA][EG]/[EG]/ | [DF]3 [EG][DF][DB] | [DB]3 [Fc]3 | [Fd]3 (F2 E) | %34
w: ||||
w: ple, And thy God my|God, Thy peo- ple|shall be|my peo- *|
w: ||||
 [DB]3 [DB][DB][FB]/[FB]/ | [EB]3 [GB][FA][EG] | ([DF][FA][FB]) [Fe]3 | [FA]3 [FB]2 |] %38
w: ||||
w: And thy God my God.||||
w: ||||
V:2
 x | x6 | x6 | x6 | x5 F | x6 | x6 | x6 | x6 | A2 x4 | x6 | x6 | x5 F | x6 | x6 | F2 F x3 | %16
w: ||||turn|||||row,|||can||||
w: ||||where|||||dred|||be|||me not|
w: ||||in|||||me;|||break||||
 F3- F2 || x | x6 | x6 | x6 | x6 | x6 | x6 | x6 | x5 F | x6 | x6 | x6 | x6 | x6 | x6 | x6 | x3 c3 | %34
w: ||||||||||||||||||
w: leave *|||||||||go,||||||||ple,|
w: ||||||||||||||||||
 x6 | x6 | x6 | x5 |] %38
w: ||||
w: ||||
w: ||||
V:3
 [B,,B,] | [B,,F,]2 [B,,F,] (G,A,)[B,,B,] | [B,,B,]3 [B,,B,]2 [B,,B,] | %3
 [E,B,]2 [E,B,] [C,F,]2 [B,,F,] | [F,A,]3- [F,A,]2 [F,A,] | [F,A,]2 [F,^G,] [F,A,]2 [F,A,] | %6
 [B,,B,]3 [B,,B,]2 [D,B,] | [E,B,]2 [E,C] [E,B,]2 [E,B,] | [B,,B,]3- [B,,B,]2 [B,,B,] | %9
 [F,C]2 [F,B,] [F,A,]2 [F,A,] | [B,,B,]3 [B,,B,]2 [D,B,] | [E,B,]2 [C,C] [D,B,]2 [E,B,] | %12
 ([F,-D]3 [F,C]2) [F,A,] | [B,,B,]2 [B,,B,] [B,,B,]2 [B,,B,] | (G,2 B,) [E,B,]2 [E,B,] | %15
 [D,B,]2 [B,,D] [C,C]2 [C,B,] | [F,A,]3- [F,A,]2 || [F,A,] | [B,,B,]2 [B,,F,] (G,A,)[B,,B,] | %19
 [B,,B,]3 [B,,B,]2 [B,,B,] | [B,,F,]2 [B,,F,] (G,A,)[B,,B,] | [E,B,]3 [B,,B,]3 | %22
 [F,C]3 [F,B,]2 [F,B,] | [F,A,]3- [F,A,]2 [F,B,] | [C,G,]>[C,G,][C,G,] [C,C]2 [C,C] | %25
 [F,C]3- [F,C]2 [F,A,] | [B,,B,]2 [B,,B,] [B,,B,]2 [D,B,] | [E,B,]2 [E,B,] [B,,B,]2 [F,A,] | %28
 [F,A,]2 [F,B,] [F,C]2 [F,A,] | [B,,B,]2 [B,,F,] [B,,B,]3 | [E,B,]3 [E,B,][E,B,][E,B,]/[E,B,]/ | %31
 [B,,B,]3 [B,,B,][B,,B,][B,,B,] | [G,B,]3 [F,A,]3 | B,3 [F,A,]3 | %34
 [G,B,]3 [G,B,][G,B,][D,_A,]/[D,A,]/ | [E,G,]3 [E,B,][E,B,][E,B,] | (B,ED) [F,C]3 | %37
 [F,E]3 [B,,D]2 |] %38
V:4
 x | x3 B,,2 x | x6 | x6 | x6 | x6 | x6 | x6 | x6 | x6 | x6 | x6 | x6 | x6 | E,3 x3 | x6 | x5 || %17
 x | x3 B,,2 x | x6 | x3 B,,2 x | x6 | x6 | x6 | x6 | x6 | x6 | x6 | x6 | x6 | x6 | x6 | x6 | %33
 B,3 x3 | x6 | x6 | F,3 x3 | x5 |] %38

